X: 83
T: THE BRINK OF THE WHITE ROCKS
B: O'Neill's 83
M: 6/8
L: 1/8
Z: Transcribed by John Chambers <jc@trillian.mit.edu>
N: "Gaily"
N: 1st Setting.
K:Em
(9A,//B,//C//D//E//F//G//A//B//) \
| ("f"c2d) (B2G) | (A>GE) (D2(B/A/)) \
| ("p"G>FE) (DB,).D | E3 E2 ||
|| (E/F/) \
| (G2F) (GAB) | (d2e) (B2A) \
| (G2E) (GAB) (e>fe/d/ d2)((9(9A,//B,//C//D//E//F//G//A//B//) |
| (c2d) (B2G) | (A>GE) (D2(B/A/)) \
| (G>FE) (DB,).D | E3 E2 ||


